public/uploads/logo-ridgid.svg

<svg width="111" height="32" viewBox="0 0 111 32" fill="none" xmlns="http://www.w3.org/2000/svg">
<path fill-rule="evenodd" clip-rule="evenodd" d="M83.4967 0.263614L83.46 22.2571L83.4528 22.4333L78.8386 22.4207C78.8657 22.1653 78.8362 22.1137 78.8398 21.9306V0.0352488L79.1369 0.0333615C80.5613 0.0792862 82.0693 0.0333615 83.4937 0.0333615L83.4967 0.263614Z" fill="black"/>
<path fill-rule="evenodd" clip-rule="evenodd" d="M30.2764 0.144694C30.2764 0.144694 30.3654 21.7614 30.3137 22.1281C29.0137 22.0967 27.2604 22.1829 25.6652 22.1464L25.6382 22.0891L25.6298 0.00943657C27.0391 0.0257933 28.781 0.0226478 30.2722 0L30.2764 0.144694Z" fill="black"/>
<path fill-rule="evenodd" clip-rule="evenodd" d="M108.449 5.75459C109.409 7.53621 110.281 9.33859 111 11.2077C109.534 15.4956 106.786 20.5197 102.25 21.961C100.819 22.3736 99.1213 22.3403 97.6849 22.3409L86.4724 22.3523L86.476 22.1384L86.4688 0.0140076L86.7002 0.0165241L99.6546 0.0121203C103.45 -0.179757 106.524 2.53546 108.449 5.75459ZM99.8681 4.9292C96.884 4.93361 94.0165 4.9443 91.1647 4.9443L91.1719 17.2873L91.1857 17.5081L98.5441 17.5037L100.389 17.2527C103.225 16.6563 104.738 13.5618 106.001 11.197C105.429 9.88088 104.701 8.6535 103.82 7.46953C102.722 6.14463 101.398 5.25193 99.8681 4.9292Z" fill="black"/>
<path fill-rule="evenodd" clip-rule="evenodd" d="M75.8443 0.416587C75.8665 1.86164 75.8281 3.43189 75.8293 4.85366L75.4499 4.85932L64.6883 4.84737C61.2497 4.65486 59.1115 8.49681 57.6048 11.0642C58.194 12.7024 59.2474 14.1411 60.4548 15.5132C61.4715 16.4694 62.5346 17.2432 63.891 17.4024L71.3155 17.415C71.3215 17.3301 71.2837 17.3905 71.3252 17.1715L71.3125 13.5366L71.2043 13.529L67.1938 13.5529C67.1776 12.0783 67.2395 10.3237 67.2185 8.7409L67.2089 8.60564L75.7253 8.60187L75.8545 8.59809V22.2264L75.8533 22.3107L63.2116 22.305C59.8613 22.1358 57.0883 19.4722 55.2225 16.6443L55.0914 16.6425C53.1397 19.6615 50.1839 22.4579 46.5913 22.2572L33.2178 22.2446L33.2298 0.605947C33.2521 0.550586 33.2334 0.304606 33.2214 0.0567391L46.9148 0.0686921C50.422 0.102035 53.3189 2.83172 55.0716 5.90993C56.0108 4.61775 57.1075 3.07581 58.4369 2.08749C60.6574 0.127828 63.5982 -0.0546124 66.5986 0.0391242L75.8281 0.0284294C75.7962 0.388277 75.8467 0.256165 75.8443 0.416587ZM46.646 4.94929C43.7984 4.81214 40.9039 4.90902 38.0328 4.88575L37.856 4.88952L37.8524 17.2162L37.8717 17.4018L45.5 17.4081C49.0463 17.7163 51.3149 13.9461 52.6274 11.1692C52.2528 9.80975 51.3263 8.69435 50.4448 7.5563C49.3878 6.32388 48.1774 5.15752 46.646 4.94929Z" fill="black"/>
<path fill-rule="evenodd" clip-rule="evenodd" d="M20.1931 1.6369C22.1676 3.02156 23.4297 5.17435 24.1212 7.34162C23.5085 10.2902 20.8779 13.2986 18.0381 14.1246C18.4265 14.5436 19.0362 14.8512 19.4685 15.2709C21.3685 17.2267 22.9108 19.6205 23.4429 22.1979V22.2262L18.1505 22.2344C17.6665 19.3368 15.1328 16.463 12.516 15.5042C10.0616 14.4461 7.66017 14.6845 4.82037 14.6468L4.63217 14.6675L4.63698 22.1665C3.1831 22.1665 1.54945 22.2086 0.0943769 22.1633L0.0925731 0.145919L0.1052 0.0320512L14.101 0.0257602C16.4321 0.0452624 18.459 0.324585 20.1931 1.6369ZM4.75002 9.92346L14.6908 9.91528C16.0323 9.98197 17.227 9.63974 18.1836 8.69168C18.542 8.16952 19.2515 7.60773 18.8673 6.91383C17.8595 5.38384 16.2235 4.85351 14.5573 4.84973L4.70312 4.84156C4.68929 6.66785 4.7398 8.21607 4.71514 9.91466L4.75002 9.92346Z" fill="black"/>
<path fill-rule="evenodd" clip-rule="evenodd" d="M110.463 32V27.0697H0V32H110.463Z" fill="black"/>
<path fill-rule="evenodd" clip-rule="evenodd" d="M109.354 20.2559C109.53 20.2559 109.701 20.3031 109.87 20.3975C110.037 20.4925 110.168 20.6277 110.261 20.8039C110.355 20.9794 110.402 21.1631 110.402 21.355C110.402 21.5443 110.356 21.7262 110.263 21.9004C110.172 22.0747 110.042 22.2106 109.876 22.3068C109.709 22.4037 109.535 22.4515 109.353 22.4515C109.171 22.4515 108.997 22.4037 108.831 22.3068C108.664 22.2106 108.535 22.0747 108.442 21.9004C108.35 21.7262 108.303 21.5443 108.303 21.355C108.303 21.1631 108.35 20.9794 108.445 20.8039C108.538 20.6277 108.669 20.4925 108.837 20.3975C109.005 20.3037 109.178 20.2559 109.354 20.2559ZM109.354 20.4377C109.206 20.4377 109.063 20.4774 108.923 20.556C108.783 20.6347 108.674 20.7485 108.595 20.8951C108.516 21.0417 108.476 21.1952 108.476 21.3543C108.476 21.5123 108.516 21.6639 108.594 21.8092C108.67 21.9539 108.78 22.0671 108.918 22.1483C109.057 22.2294 109.202 22.2697 109.354 22.2697C109.505 22.2697 109.65 22.2294 109.79 22.1483C109.928 22.0671 110.036 21.9539 110.114 21.8092C110.19 21.6645 110.229 21.5123 110.229 21.3543C110.229 21.1946 110.19 21.0417 110.111 20.8951C110.033 20.7485 109.923 20.6353 109.784 20.556C109.644 20.4767 109.499 20.4377 109.354 20.4377ZM108.893 21.9614V20.78H109.281C109.414 20.78 109.51 20.7907 109.57 20.8127C109.629 20.8341 109.675 20.8725 109.71 20.9272C109.745 20.9819 109.763 21.0392 109.763 21.1002C109.763 21.187 109.734 21.2619 109.675 21.3254C109.617 21.389 109.538 21.4254 109.44 21.4336C109.48 21.4506 109.513 21.472 109.537 21.4959C109.582 21.5425 109.638 21.6205 109.703 21.7306L109.841 21.9614H109.618L109.518 21.7752C109.44 21.6293 109.377 21.5368 109.327 21.5003C109.294 21.4726 109.246 21.4594 109.182 21.4594H109.075V21.9614H108.893ZM109.075 21.2971H109.296C109.402 21.2971 109.475 21.2807 109.512 21.2474C109.55 21.2147 109.571 21.1713 109.571 21.1165C109.571 21.0813 109.561 21.0505 109.543 21.0228C109.524 20.9951 109.498 20.9744 109.465 20.9612C109.432 20.9473 109.371 20.9404 109.282 20.9404H109.075L109.075 21.2971Z" fill="black"/>
</svg>

<?xml version="1.0" encoding="utf-8"?>
<!-- Generator: Adobe Illustrator 16.0.0, SVG Export Plug-In . SVG Version: 6.00 Build 0)  -->
<!DOCTYPE svg PUBLIC "-//W3C//DTD SVG 1.1//EN" "http://www.w3.org/Graphics/SVG/1.1/DTD/svg11.dtd">
<svg version="1.1" id="Layer_1" xmlns="http://www.w3.org/2000/svg" xmlns:xlink="http://www.w3.org/1999/xlink" x="0px" y="0px"
	 width="111px" height="32px" viewBox="0 0 111 32" enable-background="new 0 0 111 32" xml:space="preserve">
<path fill="#4D4D4D" d="M83.496,0.264L83.46,22.257l-0.007,0.177l-4.615-0.013c0.027-0.256-0.002-0.308,0.002-0.49V0.035
	l0.297-0.002c1.425,0.046,2.933,0,4.357,0L83.496,0.264z"/>
<path fill="#4D4D4D" d="M30.276,0.145c0,0,0.089,21.617,0.037,21.983c-1.3-0.031-3.053,0.056-4.648,0.019l-0.027-0.058L25.63,0.009
	C27.039,0.026,28.781,0.022,30.272,0L30.276,0.145z"/>
<path fill="#4D4D4D" d="M108.449,5.754c0.96,1.782,1.832,3.584,2.551,5.453c-1.466,4.288-4.214,9.312-8.75,10.753
	c-1.432,0.412-3.129,0.379-4.564,0.38l-11.213,0.012l0.004-0.214L86.469,0.014L86.7,0.017l12.954-0.004
	C103.45-0.18,106.523,2.536,108.449,5.754z M99.868,4.929c-2.984,0.004-5.852,0.015-8.704,0.015l0.008,12.343l0.014,0.221
	l7.358-0.004l1.845-0.251c2.836-0.597,4.35-3.691,5.612-6.056c-0.571-1.316-1.3-2.544-2.181-3.728
	C102.723,6.145,101.398,5.252,99.868,4.929z"/>
<path fill="#4D4D4D" d="M75.844,0.417c0.023,1.445-0.016,3.015-0.015,4.437l-0.38,0.006L64.688,4.847
	c-3.438-0.192-5.577,3.65-7.083,6.217c0.588,1.638,1.643,3.077,2.85,4.449c1.017,0.956,2.08,1.73,3.436,1.889l7.425,0.013
	c0.006-0.085-0.032-0.024,0.01-0.243l-0.013-3.635l-0.108-0.008l-4.011,0.024c-0.016-1.475,0.046-3.229,0.025-4.812l-0.01-0.135
	l8.516-0.003l0.13-0.004v13.628l-0.001,0.084l-12.643-0.006c-3.35-0.169-6.123-2.832-7.988-5.66l-0.131-0.002
	c-1.952,3.02-4.907,5.815-8.5,5.615l-13.374-0.014L33.23,0.606c0.022-0.055,0.003-0.301-0.009-0.549l13.694,0.012
	c3.507,0.033,6.404,2.763,8.157,5.841c0.939-1.292,2.036-2.834,3.366-3.823c2.22-1.959,5.16-2.142,8.161-2.048l9.229-0.011
	C75.797,0.388,75.847,0.256,75.844,0.417z M46.646,4.949c-2.848-0.137-5.742-0.04-8.613-0.063L37.856,4.89l-0.003,12.327
	l0.019,0.186l7.628,0.006c3.546,0.309,5.815-3.462,7.127-6.239c-0.375-1.359-1.301-2.475-2.183-3.613
	C49.388,6.324,48.177,5.158,46.646,4.949z"/>
<path fill="#4D4D4D" d="M20.193,1.637c1.975,1.385,3.237,3.538,3.928,5.705c-0.613,2.948-3.243,5.957-6.083,6.783
	c0.388,0.419,0.998,0.727,1.43,1.146c1.9,1.956,3.442,4.35,3.975,6.926v0.029l-5.292,0.008c-0.484-2.897-3.018-5.771-5.634-6.73
	c-2.455-1.058-4.856-0.82-7.696-0.857l-0.188,0.021l0.005,7.499c-1.454,0-3.088,0.043-4.543-0.003L0.093,0.146l0.012-0.114
	l13.996-0.006C16.432,0.045,18.459,0.325,20.193,1.637z M4.75,9.923l9.941-0.008c1.341,0.067,2.536-0.275,3.493-1.224
	c0.358-0.522,1.068-1.083,0.684-1.777c-1.008-1.53-2.644-2.061-4.31-2.064L4.703,4.842C4.689,6.668,4.74,8.216,4.715,9.915
	L4.75,9.923z"/>
<path fill="#4D4D4D" d="M110.463,32v-4.93H0V32H110.463z"/>
<path fill="#4D4D4D" d="M109.354,20.256c0.176,0,0.348,0.047,0.517,0.142c0.167,0.095,0.298,0.23,0.392,0.406
	s0.141,0.359,0.141,0.552c0,0.189-0.047,0.371-0.139,0.545s-0.222,0.311-0.388,0.406c-0.167,0.098-0.341,0.145-0.522,0.145
	c-0.183,0-0.356-0.047-0.522-0.145c-0.167-0.096-0.296-0.232-0.39-0.406c-0.092-0.174-0.139-0.355-0.139-0.545
	c0-0.192,0.047-0.376,0.143-0.552c0.093-0.176,0.224-0.312,0.392-0.406C109.005,20.304,109.178,20.256,109.354,20.256z
	 M109.354,20.438c-0.147,0-0.291,0.04-0.431,0.119c-0.14,0.078-0.249,0.191-0.327,0.338c-0.08,0.146-0.119,0.301-0.119,0.46
	c0,0.157,0.039,0.31,0.117,0.454c0.076,0.146,0.186,0.258,0.324,0.34c0.139,0.081,0.284,0.121,0.436,0.121s0.297-0.04,0.437-0.121
	c0.138-0.082,0.246-0.194,0.323-0.34c0.076-0.145,0.115-0.297,0.115-0.454c0-0.16-0.039-0.313-0.117-0.46s-0.188-0.26-0.327-0.338
	C109.645,20.477,109.499,20.438,109.354,20.438z M108.893,21.961V20.78h0.389c0.133,0,0.229,0.011,0.289,0.032
	c0.059,0.021,0.104,0.061,0.14,0.115s0.054,0.111,0.054,0.172c0,0.088-0.029,0.162-0.089,0.226
	c-0.058,0.063-0.137,0.101-0.235,0.108c0.041,0.018,0.074,0.039,0.098,0.063c0.045,0.047,0.102,0.125,0.166,0.234l0.138,0.23h-0.223
	l-0.101-0.186c-0.078-0.146-0.141-0.238-0.19-0.275c-0.033-0.027-0.081-0.041-0.146-0.041h-0.106v0.502H108.893z M109.075,21.297
	h0.221c0.106,0,0.179-0.016,0.216-0.049c0.038-0.033,0.059-0.076,0.059-0.131c0-0.036-0.01-0.066-0.027-0.094
	c-0.02-0.028-0.045-0.049-0.078-0.063s-0.094-0.021-0.183-0.021h-0.207V21.297z"/>
</svg>
